static/images/shapes/purple-striped-squiggle.svg

<svg height="106" viewBox="0 0 55 106" width="55" xmlns="http://www.w3.org/2000/svg" xmlns:xlink="http://www.w3.org/1999/xlink"><pattern id="a" height="6" patternUnits="userSpaceOnUse" width="50"><path d="m0 0h62v2h-62z" fill="#b23fa6"/></pattern><path d="m40.4291 70.1824c0 7.1603 5.3241 13.0515 8.6845 17.6734 1.9219 2.6433 3.8864 4.9657 3.8864 6.6846 0 3.6813-5.2924 9.4596-16.7254 9.4596-21.284 0-30.1248-18.921-30.1248-30.3448 0-12.6864 8.4211-25.0636 8.4211-37.8377 0-7.1603-5.32405-13.0514-8.68454-17.6733-1.92188-2.6434-3.88636-4.8529-3.88636-6.6846 0-3.56848 5.29246-9.4596 16.7255-9.4596 21.284 0 30.1247 18.921 30.1247 30.3448 0 12.5652-8.4211 25.1171-8.4211 37.8376z" fill="url(#a)" stroke="#b23fa6" stroke-linejoin="round" stroke-width="4"/></svg>

<svg width="55" height="106" viewBox="0 0 55 106" xmlns="http://www.w3.org/2000/svg"><defs><pattern id="stripes-purple" patternUnits="userSpaceOnUse" width="50" height="6"><rect width="62" height="2" fill="#B23FA6"></rect></pattern></defs><path d="M40.4291 70.1824C40.4291 77.3427 45.7532 83.2339 49.1136 87.8558C51.0355 90.4991 53 92.8215 53 94.5404C53 98.2217 47.7076 104 36.2746 104C14.9906 104 6.1498 85.079 6.1498 73.6552C6.1498 60.9688 14.5709 48.5916 14.5709 35.8175C14.5709 28.6572 9.24685 22.7661 5.88636 18.1442C3.96448 15.5008 2 13.2913 2 11.4596C2 7.89112 7.29246 2 18.7255 2C40.0095 2 48.8502 20.921 48.8502 32.3448C48.8502 44.91 40.4291 57.4619 40.4291 70.1824Z" fill="url(#stripes-purple)" stroke="#B23FA6" stroke-width="4" stroke-linejoin="round"></path></svg>
